X: 22
L:1/8
M:2/4
K:G
(A/_B/|=B/)G/F/E/ D/C/B,/A,/|G,/A,/B,/C/ D/E/G/A/|B/d/e/f/ g/f/g/a/|
b/g/a/g/ e/d/g/a/|c'/g/a/g/ e/d/e/f/|g/e/d/B/ A/G/E/F/|G/E/D/C/ B,/D/G/A/|
K:D
[FA]>[FA][FA][FA]|A/d/d/e/ f/e/c/A/|c/d/e/d/ c/B/(3A/B/c/|d/c/d/A/ B/A/F/G/|
[FA]>[FA][FA][FA]|A/d/d/e/ f/e/c/A/|c/d/e/f/ g/e/c/A/|[F2d2][Fd]:|



